!!!COM:	Bach, Johann Sebastian
!!!CDT:	1685/02/21/-1750/07/28/
!!!OTL@@DE:	Was Gott tut, das ist wohlgetan
!!!SCT:	BWV 12/7 & 69a/16
!!!PC#:	293
!!!AGN:	chorale
**kern	**kern	**kern	**kern
*ICvox	*ICvox	*ICvox	*ICvox
*Ibass	*Itenor	*Ialto	*Isoprn
*I"Bass	*I"Tenor	*I"Alto	*I"Soprano
*>[A,A,B]	*>[A,A,B]	*>[A,A,B]	*>[A,A,B]
*>norep[A,B]	*>norep[A,B]	*>norep[A,B]	*>norep[A,B]
*>A	*>A	*>A	*>A
*clefF4	*clefGv2	*clefG2	*clefG2
*k[f#]	*k[f#]	*k[f#]	*k[f#]
*G:	*G:	*G:	*G:
*M4/4	*M4/4	*M4/4	*M4/4
*met(c)	*met(c)	*met(c)	*met(c)
*MM100	*MM100	*MM100	*MM100
4GG	4G	4B	4d
=1	=1	=1	=1
4G	4B	4d	4g
4F#	4A	4d	4a
4G	4G	4d	4b
4E	8GL	4g	4cc
.	8AJ	.	.
=2	=2	=2	=2
4BB	4B	4g	4.dd
4D	4A	4f#	.
.	.	.	8cc
4GG;	4G;	4d;	4b;
4C	4G	8cL	4ee
.	.	8BJ	.
=3	=3	=3	=3
4D	4F#	4A	4dd
8EL	8GL	4e	4cc
8F#J	8AJ	.	.
4G	8BL	4d	4b
.	8F#J	.	.
4C	4G	4e	4cc
=4	=4	=4	=4
2D	4G	2d	2a
.	4F#	.	.
4GG;	4B;	4d;	4g;
=:|!	=:|!	=:|!	=:|!
*>B	*>B	*>B	*>B
4G	4B	4g	4dd
=5	=5	=5	=5
4C	8cL	4g	4ee
.	8BJ	.	.
4C#	4A	8aL	4ee
.	.	8gJ	.
4D;	4d;	4f#;	4a;
4C	4d	4f#	4a
=6	=6	=6	=6
4BB	8dL	4.g	4dd
.	8cJ	.	.
4BB	8BL	.	4dd
.	8dJ	8f	.
4C;	4c;	4e;	4g;
4GG	8BL	4d	4b
.	8GJ	.	.
=7	=7	=7	=7
4AA	4E	4c#	4a
8BBL	4D	4B	4g
8C#J	.	.	.
4D	8DL	4A	4f#X
.	8F#J	.	.
4GG	8EL	4B	4g
.	8DJ	.	.
=8	=8	=8	=8
2AA	4D	2A	2e
.	4C#	.	.
4DD;	4F#;	4A;	4d;
4BB	4D	4G	4dd
=9	=9	=9	=9
8EL	4E	8GL	4cc
8F#J	.	8AJ	.
4G	8DL	8BL	4b
.	8EJ	8cJ	.
8DL	4F#	4d	4a
8CnXJ	.	.	.
8BBL	4G	4d	4b
8GGJ	.	.	.
=10	=10	=10	=10
2D	4G	2d	2a
.	4F#	.	.
4GG;	4B;	4d;	4g;
==	==	==	==
*-	*-	*-	*-
!!!hum2abc: -Q ''
!!!title: @{PC#}. @{OTL@@DE}
!!!YOR1: 371 vierstimmige Choralges&auml;nge von Johann Sebastian Bach, 
!!!YOR2: 4th ed. by Alfred D&ouml;rffel (Leipzig: Breitkopf und H&auml;rtel, 
!!!YOR2: c.1875). 178 pp. Plate "V.A.10".  reprint: J.S. Bach, 371 Four-Part 
!!!YOR4: Chorales (New York: Associated Music Publishers, Inc., c.1940).
!!!SMS: B&H, 4th ed, Alfred D&ouml;rffel, c.1875, plate V.A.10
!!!EED:  Craig Stuart Sapp
!!!EEV:  2009/05/22
